images/50191675.svg

<?xml version="1.0" encoding="UTF-8"?>
<svg xmlns="http://www.w3.org/2000/svg" xmlns:xlink="http://www.w3.org/1999/xlink" width="300pt" height="300pt" viewBox="0 0 300 300" version="1.1">
<defs>
<g>
<symbol overflow="visible" id="glyph0-0">
<path style="stroke:none;" d="M 0.546875 1.9375 L 0.546875 -7.75 L 6.046875 -7.75 L 6.046875 1.9375 Z M 1.171875 1.328125 L 5.4375 1.328125 L 5.4375 -7.140625 L 1.171875 -7.140625 Z M 1.171875 1.328125 "/>
</symbol>
<symbol overflow="visible" id="glyph0-1">
<path style="stroke:none;" d="M 1.078125 -8.015625 L 5.6875 -8.015625 L 5.6875 -7.109375 L 2.171875 -7.109375 L 2.171875 -4.75 L 5.34375 -4.75 L 5.34375 -3.828125 L 2.171875 -3.828125 L 2.171875 0 L 1.078125 0 Z M 1.078125 -8.015625 "/>
</symbol>
<symbol overflow="visible" id="glyph0-2">
<path style="stroke:none;" d="M 1.078125 -8.015625 L 2.546875 -8.015625 L 6.09375 -1.3125 L 6.09375 -8.015625 L 7.15625 -8.015625 L 7.15625 0 L 5.6875 0 L 2.125 -6.703125 L 2.125 0 L 1.078125 0 Z M 1.078125 -8.015625 "/>
</symbol>
<symbol overflow="visible" id="glyph0-3">
<path style="stroke:none;" d="M 1.078125 -8.015625 L 2.171875 -8.015625 L 2.171875 -4.734375 L 6.109375 -4.734375 L 6.109375 -8.015625 L 7.1875 -8.015625 L 7.1875 0 L 6.109375 0 L 6.109375 -3.8125 L 2.171875 -3.8125 L 2.171875 0 L 1.078125 0 Z M 1.078125 -8.015625 "/>
</symbol>
<symbol overflow="visible" id="glyph0-4">
<path style="stroke:none;" d="M 4.328125 -7.28125 C 3.546875 -7.28125 2.921875 -6.984375 2.453125 -6.390625 C 1.992188 -5.804688 1.765625 -5.007812 1.765625 -4 C 1.765625 -2.988281 1.992188 -2.1875 2.453125 -1.59375 C 2.921875 -1.007812 3.546875 -0.71875 4.328125 -0.71875 C 5.117188 -0.71875 5.742188 -1.007812 6.203125 -1.59375 C 6.660156 -2.1875 6.890625 -2.988281 6.890625 -4 C 6.890625 -5.007812 6.660156 -5.804688 6.203125 -6.390625 C 5.742188 -6.984375 5.117188 -7.28125 4.328125 -7.28125 Z M 4.328125 -8.171875 C 5.453125 -8.171875 6.351562 -7.789062 7.03125 -7.03125 C 7.707031 -6.28125 8.046875 -5.269531 8.046875 -4 C 8.046875 -2.738281 7.707031 -1.726562 7.03125 -0.96875 C 6.351562 -0.21875 5.453125 0.15625 4.328125 0.15625 C 3.203125 0.15625 2.300781 -0.21875 1.625 -0.96875 C 0.957031 -1.71875 0.625 -2.726562 0.625 -4 C 0.625 -5.269531 0.957031 -6.28125 1.625 -7.03125 C 2.300781 -7.789062 3.203125 -8.171875 4.328125 -8.171875 Z M 4.328125 -8.171875 "/>
</symbol>
<symbol overflow="visible" id="glyph1-0">
<path style="stroke:none;" d="M 0.453125 1.59375 L 0.453125 -6.34375 L 4.953125 -6.34375 L 4.953125 1.59375 Z M 0.953125 1.09375 L 4.453125 1.09375 L 4.453125 -5.84375 L 0.953125 -5.84375 Z M 0.953125 1.09375 "/>
</symbol>
<symbol overflow="visible" id="glyph1-1">
<path style="stroke:none;" d="M 4.140625 -5.640625 L 4.140625 -3.1875 L 6.59375 -3.1875 L 6.59375 -2.453125 L 4.140625 -2.453125 L 4.140625 0 L 3.40625 0 L 3.40625 -2.453125 L 0.953125 -2.453125 L 0.953125 -3.1875 L 3.40625 -3.1875 L 3.40625 -5.640625 Z M 4.140625 -5.640625 "/>
</symbol>
</g>
</defs>
<g id="surface17597">
<rect x="0" y="0" width="300" height="300" style="fill:rgb(100%,100%,100%);fill-opacity:1;stroke:none;"/>
<path style="fill:none;stroke-width:1.2;stroke-linecap:butt;stroke-linejoin:miter;stroke:rgb(20%,80%,80%);stroke-opacity:1;stroke-miterlimit:10;" d="M 264.75 209.378906 L 251.457031 208.714844 "/>
<path style="fill:none;stroke-width:1.2;stroke-linecap:butt;stroke-linejoin:miter;stroke:rgb(0%,0%,0%);stroke-opacity:1;stroke-miterlimit:10;" d="M 251.457031 208.714844 L 238.164062 208.050781 "/>
<path style=" stroke:none;fill-rule:nonzero;fill:rgb(100%,100%,100%);fill-opacity:1;" d="M 261.75 202.878906 L 268.75 202.878906 L 268.75 215.878906 L 261.75 215.878906 Z M 261.75 202.878906 "/>
<g style="fill:rgb(20%,80%,80%);fill-opacity:1;">
  <use xlink:href="#glyph0-1" x="261.75" y="212.780273"/>
</g>
<path style="fill:none;stroke-width:1.2;stroke-linecap:butt;stroke-linejoin:miter;stroke:rgb(0%,0%,0%);stroke-opacity:1;stroke-miterlimit:10;" d="M 238.164062 208.050781 L 223.71875 230.410156 "/>
<path style="fill:none;stroke-width:1.2;stroke-linecap:butt;stroke-linejoin:miter;stroke:rgb(0%,0%,0%);stroke-opacity:1;stroke-miterlimit:10;" d="M 231.457031 206.886719 L 219.902344 224.773438 "/>
<path style="fill:none;stroke-width:1.2;stroke-linecap:butt;stroke-linejoin:miter;stroke:rgb(0%,0%,0%);stroke-opacity:1;stroke-miterlimit:10;" d="M 226.023438 184.359375 L 238.164062 208.050781 "/>
<path style="fill:none;stroke-width:1.2;stroke-linecap:butt;stroke-linejoin:miter;stroke:rgb(0%,0%,0%);stroke-opacity:1;stroke-miterlimit:10;" d="M 223.71875 230.410156 L 197.128906 229.078125 "/>
<path style="fill:none;stroke-width:1.2;stroke-linecap:butt;stroke-linejoin:miter;stroke:rgb(0%,0%,0%);stroke-opacity:1;stroke-miterlimit:10;" d="M 197.128906 229.078125 L 184.988281 205.386719 "/>
<path style="fill:none;stroke-width:1.2;stroke-linecap:butt;stroke-linejoin:miter;stroke:rgb(0%,0%,0%);stroke-opacity:1;stroke-miterlimit:10;" d="M 201.492188 223.851562 L 191.777344 204.898438 "/>
<path style="fill:none;stroke-width:1.2;stroke-linecap:butt;stroke-linejoin:miter;stroke:rgb(0%,0%,0%);stroke-opacity:1;stroke-miterlimit:10;" d="M 184.988281 205.386719 L 199.4375 183.027344 "/>
<path style="fill:none;stroke-width:1.2;stroke-linecap:butt;stroke-linejoin:miter;stroke:rgb(0%,0%,0%);stroke-opacity:1;stroke-miterlimit:10;" d="M 184.988281 205.386719 L 158.402344 204.054688 "/>
<path style="fill:none;stroke-width:1.2;stroke-linecap:butt;stroke-linejoin:miter;stroke:rgb(0%,0%,0%);stroke-opacity:1;stroke-miterlimit:10;" d="M 199.4375 183.027344 L 226.023438 184.359375 "/>
<path style="fill:none;stroke-width:1.2;stroke-linecap:butt;stroke-linejoin:miter;stroke:rgb(0%,0%,0%);stroke-opacity:1;stroke-miterlimit:10;" d="M 201.78125 189.417969 L 223.050781 190.480469 "/>
<path style="fill:none;stroke-width:1.2;stroke-linecap:butt;stroke-linejoin:miter;stroke:rgb(0%,0%,0%);stroke-opacity:1;stroke-miterlimit:10;" d="M 158.402344 204.054688 L 150.050781 214.417969 "/>
<path style="fill:none;stroke-width:1.2;stroke-linecap:butt;stroke-linejoin:miter;stroke:rgb(0%,0%,100%);stroke-opacity:1;stroke-miterlimit:10;" d="M 150.050781 214.417969 L 141.699219 224.78125 "/>
<path style="fill:none;stroke-width:1.2;stroke-linecap:butt;stroke-linejoin:miter;stroke:rgb(0%,0%,0%);stroke-opacity:1;stroke-miterlimit:10;" d="M 143.851562 181.765625 L 158.402344 204.054688 "/>
<path style="fill:none;stroke-width:1.2;stroke-linecap:butt;stroke-linejoin:miter;stroke:rgb(0%,0%,0%);stroke-opacity:1;stroke-miterlimit:10;" d="M 140.0625 187.417969 L 151.703125 205.25 "/>
<path style="fill:none;stroke-width:1.2;stroke-linecap:butt;stroke-linejoin:miter;stroke:rgb(0%,0%,100%);stroke-opacity:1;stroke-miterlimit:10;" d="M 141.699219 224.78125 L 129.261719 220.042969 "/>
<path style="fill:none;stroke-width:1.2;stroke-linecap:butt;stroke-linejoin:miter;stroke:rgb(0%,0%,0%);stroke-opacity:1;stroke-miterlimit:10;" d="M 129.261719 220.042969 L 116.824219 215.300781 "/>
<path style="fill:none;stroke-width:1.2;stroke-linecap:butt;stroke-linejoin:miter;stroke:rgb(0%,0%,100%);stroke-opacity:1;stroke-miterlimit:10;" d="M 141.441406 217.980469 L 131.492188 214.1875 "/>
<path style="fill:none;stroke-width:1.2;stroke-linecap:butt;stroke-linejoin:miter;stroke:rgb(0%,0%,0%);stroke-opacity:1;stroke-miterlimit:10;" d="M 131.492188 214.1875 L 121.542969 210.394531 "/>
<path style=" stroke:none;fill-rule:nonzero;fill:rgb(100%,100%,100%);fill-opacity:1;" d="M 137.699219 218.28125 L 145.699219 218.28125 L 145.699219 231.28125 L 137.699219 231.28125 Z M 137.699219 218.28125 "/>
<g style="fill:rgb(0%,0%,100%);fill-opacity:1;">
  <use xlink:href="#glyph0-2" x="137.699219" y="228.182617"/>
</g>
<path style="fill:none;stroke-width:1.2;stroke-linecap:butt;stroke-linejoin:miter;stroke:rgb(0%,0%,0%);stroke-opacity:1;stroke-miterlimit:10;" d="M 116.824219 215.300781 L 117.492188 202.007812 "/>
<path style="fill:none;stroke-width:1.2;stroke-linecap:butt;stroke-linejoin:miter;stroke:rgb(0%,0%,100%);stroke-opacity:1;stroke-miterlimit:10;" d="M 117.492188 202.007812 L 118.15625 188.714844 "/>
<path style="fill:none;stroke-width:1.2;stroke-linecap:butt;stroke-linejoin:miter;stroke:rgb(0%,0%,100%);stroke-opacity:1;stroke-miterlimit:10;" d="M 118.15625 188.714844 L 131.003906 185.238281 "/>
<path style="fill:none;stroke-width:1.2;stroke-linecap:butt;stroke-linejoin:miter;stroke:rgb(0%,0%,0%);stroke-opacity:1;stroke-miterlimit:10;" d="M 131.003906 185.238281 L 143.851562 181.765625 "/>
<path style="fill:none;stroke-width:1.2;stroke-linecap:butt;stroke-linejoin:miter;stroke:rgb(0%,0%,100%);stroke-opacity:1;stroke-miterlimit:10;" d="M 118.15625 188.714844 L 107.792969 180.359375 "/>
<path style="fill:none;stroke-width:1.2;stroke-linecap:butt;stroke-linejoin:miter;stroke:rgb(0%,0%,0%);stroke-opacity:1;stroke-miterlimit:10;" d="M 107.792969 180.359375 L 97.429688 172.007812 "/>
<path style=" stroke:none;fill-rule:nonzero;fill:rgb(100%,100%,100%);fill-opacity:1;" d="M 114.15625 182.214844 L 122.15625 182.214844 L 122.15625 195.214844 L 114.15625 195.214844 Z M 114.15625 182.214844 "/>
<g style="fill:rgb(0%,0%,100%);fill-opacity:1;">
  <use xlink:href="#glyph0-2" x="114.15625" y="192.116211"/>
</g>
<path style="fill:none;stroke-width:1.2;stroke-linecap:butt;stroke-linejoin:miter;stroke:rgb(0%,0%,0%);stroke-opacity:1;stroke-miterlimit:10;" d="M 143.851562 181.765625 L 153.335938 156.890625 "/>
<path style="fill:none;stroke-width:1.2;stroke-linecap:butt;stroke-linejoin:miter;stroke:rgb(0%,0%,0%);stroke-opacity:1;stroke-miterlimit:10;" d="M 153.335938 156.890625 L 166.476562 154.777344 "/>
<path style="fill:none;stroke-width:1.2;stroke-linecap:butt;stroke-linejoin:miter;stroke:rgb(0%,0%,100%);stroke-opacity:1;stroke-miterlimit:10;" d="M 166.476562 154.777344 L 179.617188 152.664062 "/>
<path style="fill:none;stroke-width:1.2;stroke-linecap:butt;stroke-linejoin:miter;stroke:rgb(0%,0%,0%);stroke-opacity:1;stroke-miterlimit:10;" d="M 154.96875 150.285156 L 165.480469 148.59375 "/>
<path style="fill:none;stroke-width:1.2;stroke-linecap:butt;stroke-linejoin:miter;stroke:rgb(0%,0%,100%);stroke-opacity:1;stroke-miterlimit:10;" d="M 165.480469 148.59375 L 175.996094 146.902344 "/>
<path style="fill:none;stroke-width:1.2;stroke-linecap:butt;stroke-linejoin:miter;stroke:rgb(0%,0%,0%);stroke-opacity:1;stroke-miterlimit:10;" d="M 136.535156 136.242188 L 153.335938 156.890625 "/>
<path style="fill:none;stroke-width:1.2;stroke-linecap:butt;stroke-linejoin:miter;stroke:rgb(0%,0%,100%);stroke-opacity:1;stroke-miterlimit:10;" d="M 179.617188 152.664062 L 184.359375 140.226562 "/>
<path style="fill:none;stroke-width:1.2;stroke-linecap:butt;stroke-linejoin:miter;stroke:rgb(0%,0%,0%);stroke-opacity:1;stroke-miterlimit:10;" d="M 184.359375 140.226562 L 189.097656 127.789062 "/>
<path style=" stroke:none;fill-rule:nonzero;fill:rgb(100%,100%,100%);fill-opacity:1;" d="M 175.617188 146.164062 L 183.617188 146.164062 L 183.617188 159.164062 L 175.617188 159.164062 Z M 175.617188 146.164062 "/>
<g style="fill:rgb(0%,0%,100%);fill-opacity:1;">
  <use xlink:href="#glyph0-2" x="175.617188" y="156.06543"/>
</g>
<path style="fill:none;stroke-width:1.2;stroke-linecap:butt;stroke-linejoin:miter;stroke:rgb(0%,0%,0%);stroke-opacity:1;stroke-miterlimit:10;" d="M 189.097656 127.789062 L 180.699219 117.464844 "/>
<path style="fill:none;stroke-width:1.2;stroke-linecap:butt;stroke-linejoin:miter;stroke:rgb(0%,0%,100%);stroke-opacity:1;stroke-miterlimit:10;" d="M 180.699219 117.464844 L 172.296875 107.140625 "/>
<path style="fill:none;stroke-width:1.2;stroke-linecap:butt;stroke-linejoin:miter;stroke:rgb(0%,0%,0%);stroke-opacity:1;stroke-miterlimit:10;" d="M 182.5625 129.679688 L 175.839844 121.417969 "/>
<path style="fill:none;stroke-width:1.2;stroke-linecap:butt;stroke-linejoin:miter;stroke:rgb(0%,0%,100%);stroke-opacity:1;stroke-miterlimit:10;" d="M 175.839844 121.417969 L 169.121094 113.160156 "/>
<path style="fill:none;stroke-width:1.2;stroke-linecap:butt;stroke-linejoin:miter;stroke:rgb(0%,0%,0%);stroke-opacity:1;stroke-miterlimit:10;" d="M 189.097656 127.789062 L 202.242188 125.675781 "/>
<path style="fill:none;stroke-width:1.2;stroke-linecap:butt;stroke-linejoin:miter;stroke:rgb(0%,0%,100%);stroke-opacity:1;stroke-miterlimit:10;" d="M 202.242188 125.675781 L 215.382812 123.566406 "/>
<path style="fill:none;stroke-width:1.2;stroke-linecap:butt;stroke-linejoin:miter;stroke:rgb(0%,0%,100%);stroke-opacity:1;stroke-miterlimit:10;" d="M 172.296875 107.140625 L 159.15625 109.253906 "/>
<path style="fill:none;stroke-width:1.2;stroke-linecap:butt;stroke-linejoin:miter;stroke:rgb(0%,0%,0%);stroke-opacity:1;stroke-miterlimit:10;" d="M 159.15625 109.253906 L 146.015625 111.367188 "/>
<path style=" stroke:none;fill-rule:nonzero;fill:rgb(100%,100%,100%);fill-opacity:1;" d="M 168.296875 100.640625 L 176.296875 100.640625 L 176.296875 113.640625 L 168.296875 113.640625 Z M 168.296875 100.640625 "/>
<g style="fill:rgb(0%,0%,100%);fill-opacity:1;">
  <use xlink:href="#glyph0-2" x="168.296875" y="110.541992"/>
</g>
<path style="fill:none;stroke-width:1.2;stroke-linecap:butt;stroke-linejoin:miter;stroke:rgb(0%,0%,0%);stroke-opacity:1;stroke-miterlimit:10;" d="M 146.015625 111.367188 L 136.535156 136.242188 "/>
<path style="fill:none;stroke-width:1.2;stroke-linecap:butt;stroke-linejoin:miter;stroke:rgb(0%,0%,0%);stroke-opacity:1;stroke-miterlimit:10;" d="M 150.921875 116.085938 L 143.335938 135.984375 "/>
<path style="fill:none;stroke-width:1.2;stroke-linecap:butt;stroke-linejoin:miter;stroke:rgb(0%,0%,100%);stroke-opacity:1;stroke-miterlimit:10;" d="M 215.382812 123.566406 L 220.121094 111.128906 "/>
<path style="fill:none;stroke-width:1.2;stroke-linecap:butt;stroke-linejoin:miter;stroke:rgb(0%,0%,0%);stroke-opacity:1;stroke-miterlimit:10;" d="M 220.121094 111.128906 L 224.863281 98.691406 "/>
<path style=" stroke:none;fill-rule:nonzero;fill:rgb(100%,100%,100%);fill-opacity:1;" d="M 207.382812 117.066406 L 224.382812 117.066406 L 224.382812 130.066406 L 207.382812 130.066406 Z M 207.382812 117.066406 "/>
<g style="fill:rgb(0%,0%,100%);fill-opacity:1;">
  <use xlink:href="#glyph0-2" x="207.382812" y="126.967773"/>
  <use xlink:href="#glyph0-3" x="215.366211" y="126.967773"/>
</g>
<path style="fill:none;stroke-width:1.2;stroke-linecap:butt;stroke-linejoin:miter;stroke:rgb(0%,0%,0%);stroke-opacity:1;stroke-miterlimit:10;" d="M 224.863281 98.691406 L 251.144531 94.464844 "/>
<path style="fill:none;stroke-width:1.2;stroke-linecap:butt;stroke-linejoin:miter;stroke:rgb(0%,0%,0%);stroke-opacity:1;stroke-miterlimit:10;" d="M 251.144531 94.464844 L 255.886719 82.027344 "/>
<path style="fill:none;stroke-width:1.2;stroke-linecap:butt;stroke-linejoin:miter;stroke:rgb(100%,0%,0%);stroke-opacity:1;stroke-miterlimit:10;" d="M 255.886719 82.027344 L 260.628906 69.589844 "/>
<path style=" stroke:none;fill-rule:nonzero;fill:rgb(100%,100%,100%);fill-opacity:1;" d="M 252.628906 63.089844 L 269.628906 63.089844 L 269.628906 76.089844 L 252.628906 76.089844 Z M 252.628906 63.089844 "/>
<g style="fill:rgb(100%,0%,0%);fill-opacity:1;">
  <use xlink:href="#glyph0-4" x="252.628906" y="72.991211"/>
  <use xlink:href="#glyph0-3" x="261.029297" y="72.991211"/>
</g>
<path style="fill:none;stroke-width:1.2;stroke-linecap:butt;stroke-linejoin:miter;stroke:rgb(0%,0%,0%);stroke-opacity:1;stroke-miterlimit:10;" d="M 97.429688 172.007812 L 101.53125 145.707031 "/>
<path style="fill:none;stroke-width:1.2;stroke-linecap:butt;stroke-linejoin:miter;stroke:rgb(0%,0%,0%);stroke-opacity:1;stroke-miterlimit:10;" d="M 72.601562 181.605469 L 97.429688 172.007812 "/>
<path style="fill:none;stroke-width:1.2;stroke-linecap:butt;stroke-linejoin:miter;stroke:rgb(0%,0%,0%);stroke-opacity:1;stroke-miterlimit:10;" d="M 101.53125 145.707031 L 80.804688 129.003906 "/>
<path style="fill:none;stroke-width:1.2;stroke-linecap:butt;stroke-linejoin:miter;stroke:rgb(0%,0%,0%);stroke-opacity:1;stroke-miterlimit:10;" d="M 80.804688 129.003906 L 68.390625 133.800781 "/>
<path style="fill:none;stroke-width:1.2;stroke-linecap:butt;stroke-linejoin:miter;stroke:rgb(0%,0%,100%);stroke-opacity:1;stroke-miterlimit:10;" d="M 68.390625 133.800781 L 55.976562 138.601562 "/>
<path style="fill:none;stroke-width:1.2;stroke-linecap:butt;stroke-linejoin:miter;stroke:rgb(0%,0%,100%);stroke-opacity:1;stroke-miterlimit:10;" d="M 55.976562 138.601562 L 53.925781 151.75 "/>
<path style="fill:none;stroke-width:1.2;stroke-linecap:butt;stroke-linejoin:miter;stroke:rgb(0%,0%,0%);stroke-opacity:1;stroke-miterlimit:10;" d="M 53.925781 151.75 L 51.875 164.902344 "/>
<path style="fill:none;stroke-width:1.2;stroke-linecap:butt;stroke-linejoin:miter;stroke:rgb(0%,0%,100%);stroke-opacity:1;stroke-miterlimit:10;" d="M 55.976562 138.601562 L 45.613281 130.25 "/>
<path style="fill:none;stroke-width:1.2;stroke-linecap:butt;stroke-linejoin:miter;stroke:rgb(0%,0%,0%);stroke-opacity:1;stroke-miterlimit:10;" d="M 45.613281 130.25 L 35.25 121.894531 "/>
<path style=" stroke:none;fill-rule:nonzero;fill:rgb(100%,100%,100%);fill-opacity:1;" d="M 43.976562 130.601562 L 67.976562 130.601562 L 67.976562 146.601562 L 43.976562 146.601562 Z M 43.976562 130.601562 "/>
<g style="fill:rgb(0%,0%,100%);fill-opacity:1;">
  <use xlink:href="#glyph0-2" x="43.976562" y="143.734375"/>
  <use xlink:href="#glyph0-3" x="51.959961" y="143.734375"/>
</g>
<g style="fill:rgb(0%,0%,100%);fill-opacity:1;">
  <use xlink:href="#glyph1-1" x="59.984375" y="138.851562"/>
</g>
<path style="fill:none;stroke-width:1.2;stroke-linecap:butt;stroke-linejoin:miter;stroke:rgb(0%,0%,0%);stroke-opacity:1;stroke-miterlimit:10;" d="M 51.875 164.902344 L 72.601562 181.605469 "/>
</g>
</svg>

<svg xmlns="http://www.w3.org/2000/svg" xmlns:xlink="http://www.w3.org/1999/xlink" width="300pt" height="300pt" viewBox="0 0 300 300"><defs><symbol overflow="visible"><path d="M.547 1.938V-7.75h5.5v9.688zm.625-.61h4.266v-8.47H1.171zm0 0"/></symbol><symbol overflow="visible" id="a"><path d="M1.078-8.016h4.61v.907H2.171v2.36h3.172v.922H2.172V0H1.078zm0 0"/></symbol><symbol overflow="visible" id="b"><path d="M1.078-8.016h1.47l3.546 6.704v-6.704h1.062V0H5.688L2.124-6.703V0H1.078zm0 0"/></symbol><symbol overflow="visible" id="c"><path d="M1.078-8.016h1.094v3.282H6.11v-3.282h1.077V0H6.11v-3.813H2.17V0H1.078zm0 0"/></symbol><symbol overflow="visible" id="d"><path d="M4.328-7.28c-.78 0-1.406.296-1.875.89-.46.585-.687 1.382-.687 2.39 0 1.012.226 1.813.687 2.406.47.586 1.094.875 1.875.875.79 0 1.414-.288 1.875-.874.457-.593.688-1.394.688-2.406 0-1.008-.23-1.805-.687-2.39-.46-.594-1.086-.89-1.875-.89zm0-.892c1.125 0 2.024.383 2.703 1.14C7.708-6.28 8.048-5.27 8.048-4c0 1.262-.34 2.273-1.016 3.03C6.353-.22 5.454.157 4.33.157S2.3-.22 1.625-.97c-.668-.75-1-1.757-1-3.03 0-1.27.332-2.28 1-3.03.676-.76 1.578-1.142 2.703-1.142zm0 0"/></symbol><symbol overflow="visible"><path d="M.453 1.594v-7.938h4.5v7.938zm.5-.5h3.5v-6.938h-3.5zm0 0"/></symbol><symbol overflow="visible" id="e"><path d="M4.14-5.64v2.452h2.454v.735H4.14V0h-.734v-2.453H.953v-.735h2.453V-5.64zm0 0"/></symbol></defs><g><path fill="#fff" d="M0 0h300v300H0z"/><path d="M264.75 209.38l-13.293-.665" stroke-width="1.2" stroke="#3cc" stroke-miterlimit="10" fill="none"/><path d="M251.457 208.715l-13.293-.664" stroke-width="1.2" stroke="#000" stroke-miterlimit="10" fill="none"/><path d="M261.75 202.88h7v13h-7zm0 0" fill="#fff"/><use xlink:href="#a" x="261.75" y="212.78" fill="#3cc"/><path d="M238.164 208.05l-14.445 22.36M231.457 206.887l-11.555 17.886M226.023 184.36l12.14 23.69M223.72 230.41l-26.59-1.332M197.13 229.078l-12.142-23.69M201.492 223.852l-9.715-18.954M184.988 205.387l14.45-22.36M184.988 205.387l-26.586-1.332M199.438 183.027l26.585 1.332M201.78 189.418l21.27 1.062M158.402 204.055l-8.35 10.363" stroke-width="1.2" stroke="#000" stroke-miterlimit="10" fill="none"/><path d="M150.05 214.418l-8.35 10.363" stroke-width="1.2" stroke="#00f" stroke-miterlimit="10" fill="none"/><path d="M143.852 181.766l14.55 22.29M140.063 187.418l11.64 17.832" stroke-width="1.2" stroke="#000" stroke-miterlimit="10" fill="none"/><path d="M141.7 224.78l-12.438-4.737" stroke-width="1.2" stroke="#00f" stroke-miterlimit="10" fill="none"/><path d="M129.262 220.043l-12.438-4.742" stroke-width="1.2" stroke="#000" stroke-miterlimit="10" fill="none"/><path d="M141.44 217.98l-9.948-3.792" stroke-width="1.2" stroke="#00f" stroke-miterlimit="10" fill="none"/><path d="M131.492 214.188l-9.95-3.793" stroke-width="1.2" stroke="#000" stroke-miterlimit="10" fill="none"/><path d="M137.7 218.28h8v13h-8zm0 0" fill="#fff"/><use xlink:href="#b" x="137.699" y="228.183" fill="#00f"/><path d="M116.824 215.3l.668-13.292" stroke-width="1.2" stroke="#000" stroke-miterlimit="10" fill="none"/><path d="M117.492 202.008l.664-13.293M118.156 188.715l12.848-3.477" stroke-width="1.2" stroke="#00f" stroke-miterlimit="10" fill="none"/><path d="M131.004 185.238l12.848-3.472" stroke-width="1.2" stroke="#000" stroke-miterlimit="10" fill="none"/><path d="M118.156 188.715l-10.363-8.356" stroke-width="1.2" stroke="#00f" stroke-miterlimit="10" fill="none"/><path d="M107.793 180.36l-10.363-8.352" stroke-width="1.2" stroke="#000" stroke-miterlimit="10" fill="none"/><path d="M114.156 182.215h8v13h-8zm0 0" fill="#fff"/><use xlink:href="#b" x="114.156" y="192.116" fill="#00f"/><path d="M143.852 181.766l9.484-24.875M153.336 156.89l13.14-2.113" stroke-width="1.2" stroke="#000" stroke-miterlimit="10" fill="none"/><path d="M166.477 154.777l13.14-2.113" stroke-width="1.2" stroke="#00f" stroke-miterlimit="10" fill="none"/><path d="M154.97 150.285l10.51-1.69" stroke-width="1.2" stroke="#000" stroke-miterlimit="10" fill="none"/><path d="M165.48 148.594l10.516-1.692" stroke-width="1.2" stroke="#00f" stroke-miterlimit="10" fill="none"/><path d="M136.535 136.242l16.8 20.65" stroke-width="1.2" stroke="#000" stroke-miterlimit="10" fill="none"/><path d="M179.617 152.664l4.742-12.437" stroke-width="1.2" stroke="#00f" stroke-miterlimit="10" fill="none"/><path d="M184.36 140.227l4.738-12.438" stroke-width="1.2" stroke="#000" stroke-miterlimit="10" fill="none"/><path d="M175.617 146.164h8v13h-8zm0 0" fill="#fff"/><use xlink:href="#b" x="175.617" y="156.065" fill="#00f"/><path d="M189.098 127.79l-8.4-10.325" stroke-width="1.2" stroke="#000" stroke-miterlimit="10" fill="none"/><path d="M180.7 117.465l-8.403-10.324" stroke-width="1.2" stroke="#00f" stroke-miterlimit="10" fill="none"/><path d="M182.563 129.68l-6.723-8.262" stroke-width="1.2" stroke="#000" stroke-miterlimit="10" fill="none"/><path d="M175.84 121.418l-6.72-8.258" stroke-width="1.2" stroke="#00f" stroke-miterlimit="10" fill="none"/><path d="M189.098 127.79l13.144-2.114" stroke-width="1.2" stroke="#000" stroke-miterlimit="10" fill="none"/><path d="M202.242 125.676l13.14-2.11M172.297 107.14l-13.14 2.114" stroke-width="1.2" stroke="#00f" stroke-miterlimit="10" fill="none"/><path d="M159.156 109.254l-13.14 2.113" stroke-width="1.2" stroke="#000" stroke-miterlimit="10" fill="none"/><path d="M168.297 100.64h8v13h-8zm0 0" fill="#fff"/><use xlink:href="#b" x="168.297" y="110.542" fill="#00f"/><path d="M146.016 111.367l-9.48 24.875M150.922 116.086l-7.586 19.898" stroke-width="1.2" stroke="#000" stroke-miterlimit="10" fill="none"/><path d="M215.383 123.566l4.738-12.437" stroke-width="1.2" stroke="#00f" stroke-miterlimit="10" fill="none"/><path d="M220.12 111.13l4.743-12.44" stroke-width="1.2" stroke="#000" stroke-miterlimit="10" fill="none"/><path d="M207.383 117.066h17v13h-17zm0 0" fill="#fff"/><g fill="#00f"><use xlink:href="#b" x="207.383" y="126.968"/><use xlink:href="#c" x="215.366" y="126.968"/></g><path d="M224.863 98.69l26.282-4.225M251.145 94.465l4.742-12.438" stroke-width="1.2" stroke="#000" stroke-miterlimit="10" fill="none"/><path d="M255.887 82.027l4.742-12.437" stroke-width="1.2" stroke="#f00" stroke-miterlimit="10" fill="none"/><path d="M252.63 63.09h17v13h-17zm0 0" fill="#fff"/><g fill="#f00"><use xlink:href="#d" x="252.629" y="72.991"/><use xlink:href="#c" x="261.029" y="72.991"/></g><path d="M97.43 172.008l4.1-26.3M72.602 181.605l24.828-9.597M101.53 145.707l-20.725-16.703M80.805 129.004L68.39 133.8" stroke-width="1.2" stroke="#000" stroke-miterlimit="10" fill="none"/><path d="M68.39 133.8l-12.413 4.802M55.977 138.602l-2.05 13.148" stroke-width="1.2" stroke="#00f" stroke-miterlimit="10" fill="none"/><path d="M53.926 151.75l-2.05 13.152" stroke-width="1.2" stroke="#000" stroke-miterlimit="10" fill="none"/><path d="M55.977 138.602l-10.364-8.352" stroke-width="1.2" stroke="#00f" stroke-miterlimit="10" fill="none"/><path d="M45.613 130.25l-10.363-8.355" stroke-width="1.2" stroke="#000" stroke-miterlimit="10" fill="none"/><path d="M43.977 130.602h24v16h-24zm0 0" fill="#fff"/><g fill="#00f"><use xlink:href="#b" x="43.977" y="143.734"/><use xlink:href="#c" x="51.96" y="143.734"/></g><use xlink:href="#e" x="59.984" y="138.852" fill="#00f"/><path d="M51.875 164.902l20.727 16.703" stroke-width="1.2" stroke="#000" stroke-miterlimit="10" fill="none"/></g></svg>
